X: 68
T: Tian e
%%abc-version 2.0
%%abcx-abcm2ps-target-version 5.9.1 (29 Sep 2008)
%%abc-creator hum2abc beta
%%abcx-conversion-date 2013/10/02 07:44:27
%%abc-edited-by Helmut Schaffrath
%%humdrum-veritas 4245544495
%%humdrum-veritas-data 3243738790
%%continueall 1
%%barnumbers 0
L: 1/8
M: 4/4
K: F
A2F DC4 [I:setbarnb 1]| 
c2d fd4 | 
d2c A F G c A | 
G8 | 
c2d fd4 | 
G2F D2<C2D | 
A2F D C DA2 | 
D8 |]  



